X: 28393
T: Muireann's
R: jig
M: 6/8
K: Bminor
|:dBA BAB|def ede|f2e ede|faf efe|
dBA BAB|def ede|fba fed|f2e edB:|
|:BAB e3|BAB fef|Bba fed|f2e edB|
BAB e3|BAB f3|baf a2b|f2e edB:|
|:BAF E2G|FDE FDE|FAA ABB|Bdd edB|
BAF E2G|FDE FDE|FAB def|1 fed edB:|2 fed e3||
|:fef b2f|fef a3|fba fed|f2e ede|
fef b2f|fef a3|baf a2b|1 f2e ede:|2 f2e edB||

